X:1
T:River Flows In You
T:Arr. Eduardo Ortega Gil
T:River Flows In You
T:Copyright © Eduardo Orteg Gil
T:Copyright © Eduardo Orteg Gil
C:Arr. Eduardo Ortega Gil
Z:Copyright © Eduardo Orteg Gil
%%score { 1 | 2 }
L:1/8
M:4/4
K:A
V:1 treble nm="Piano" snm="Pno."
V:2 bass 
V:1
"CLa""^5" a"^4"g"^5"a"^4"g"^5" a"^2"e"^5"a"^1"d- | d8 | %2
"^5" a"^4"g"^5"a"^4"g"^5" a"^2"e"^5"a"^1"d- | d8 | %4
"^5" (3a"^4"g"^5"a- (3a"^4"g"^5"a- (3a"^2"e"^5"a- (3a"^1"d"^5"a | %5
"Ddim#""^3" c"^4"d"^5"e"^3"c"^2" B3"^3" c/"^2"B/ |"^1" A3"^1" A/B/"^2""^3" c3"^3" c/"^4"d/ | %7
"^5" e3"^4" d/"^3"c/"^2" B4 |"CLa""^5" (3a"^4"g"^5"a- (3a"^4"g"^5"a- (3a"^2"e"^5"a- (3a"^1"d"^5"a | %9
"Ddim#""^3" c"^4"d"^5"e"^3"c"^2" B3"^3" c/"^2"B/ |"^1" A3"^1" A/B/"^3" c3"^3" c/"^4"d/ | %11
"^5" e3"^4" d/"^3"c/"^2" B2"CLa""^3" a/"^4"b/"^3"a/"^2"g/ | %12
"^3" a"^1"e"^3" a/"^4"b/"^3"a/"^2"g/"^3" a"^1"e"^3" a/"^4"b/"^3"a/"^2"g/ | %13
"CLa""^1" a/"^2"b/"^3"c'/"^4"d'/"^5" e'/"^3"c'/"^2"b/"^1"a/"CSol#""^2" g"^1"e"^3" a/"^4"b/"^3"a/"^2"g/ | %14
"^3" a"^1"e"^3" a/"^4"b/"^3"a/"^2"g/"^3" a"^1"e"^3" a/"^4"b/"^3"a/"^2"g/ | %15
"CLa""^1" a/"^2"b/"^3"c'/"^4"d'/"^5" e'/"^3"c'/"^2"b/"^1"a/"CSol#""^2" g"^1"e"^3" a/"^4"b/"^3"a/"^2"g/ | %16
"^3" a"^1"e"^3" a/"^4"b/"^3"a/"^2"g/"^3" a"^1"e"^3" a/"^4"b/"^3"a/"^2"g/ | %17
"CLa""^1" a/"^2"b/"^3"c'/"^4"d'/"^5" e'/"^3"c'/"^2"b/"^1"a/"CSol#""^2" g"^1"e"^3"B"^2"G |"^1" E8 |] %19
V:2
"^3" F,4"^2" D,4- | D,8 |"^3" F,4"^2" D,4- | D,8 |"^3" F,2"^3" F,2"^5" D,2"^5" D,2 | %5
"^1" A,2"^1" A,2"^4" E,2"^4" E,2 |"^3" F,2"^3" F,2"^5" D,2"^5" D,2 | %7
"^1" A,2"^1" A,2"^4" E,2"^4" E,2 |"^3" F,2"^3" F,2"^5" D,2"^5" D,2 | %9
"^1" A,2"^1" A,2"^4" E,2"^4" E,2 |"^3" F,2"^3" F,2"^5" D,2"^5" D,2 | %11
"^1" A,2"^1" A,2"^4" E,2"^4" E,2 |"^3" F,2"^3" F,2"^5" D,2"^5" D,2 | %13
"^1" A,2"^1" A,2"^4" E,2"^4" E,2 |"^3" F,2"^3" F,2"^5" D,2"^5" D,2 | %15
"^1" A,2"^1" A,2"^4" E,2"^4" E,2 |"^3" F,2"^3" F,2"^5" D,2"^5" D,2 | %17
"^1" A,2"^1" A,2"^4" E,2"^4" E,2 |"^3" E,8 |] %19

